icons/svg/binoculars.svg

﻿<?xml version="1.0" encoding="utf-8"?>
<!DOCTYPE svg PUBLIC "-//W3C//DTD SVG 1.1//EN" "http://www.w3.org/Graphics/SVG/1.1/DTD/svg11.dtd">
<svg xmlns="http://www.w3.org/2000/svg" xmlns:xlink="http://www.w3.org/1999/xlink" version="1.1" baseProfile="full" width="24" height="24" viewBox="0 0 24.00 24.00" enable-background="new 0 0 24.00 24.00" xml:space="preserve">
	<path fill="#000000" fill-opacity="1" stroke-linejoin="round" d="M 11,6L 13,6L 13,13L 11,13L 11,6 Z M 9,20C 9,20.5523 8.55228,21 8,21L 5,21C 4.44771,21 4,20.5523 4,20L 4,15L 6,6.00001L 10,6.00001L 10,13C 10,13.5523 9.55228,14 9,14L 9,20 Z M 10,5.00001L 7,5.00001L 7,3.00001L 10,3.00001L 10,5.00001 Z M 15,20L 15,14C 14.4477,14 14,13.5523 14,13L 14,6L 18,6L 20,15L 20,20C 20,20.5523 19.5523,21 19,21L 16,21C 15.4477,21 15,20.5523 15,20 Z M 14,5L 14,3L 17,3L 17,5L 14,5 Z "/>
</svg>

<svg xmlns="http://www.w3.org/2000/svg" version="1.1" baseProfile="full" width="24" height="24" viewBox="0 0 24.00 24.00" xml:space="preserve"><path fill="#000" fill-opacity="1" stroke-linejoin="round" d="M11 6h2v7h-2V6zM9 20c0 .552-.448 1-1 1H5c-.552 0-1-.448-1-1v-5l2-9h4v7c0 .552-.448 1-1 1v6zm1-15H7V3h3v2zm5 15v-6c-.552 0-1-.448-1-1V6h4l2 9v5c0 .552-.448 1-1 1h-3c-.552 0-1-.448-1-1zM14 5V3h3v2h-3z"/></svg>
